svg/example-03.svg

<svg class="typst-doc" viewBox="0 0 396.8503937007874 297.6377952755906" width="396.8503937007874pt" height="297.6377952755906pt" xmlns="http://www.w3.org/2000/svg" xmlns:xlink="http://www.w3.org/1999/xlink" xmlns:h5="http://www.w3.org/1999/xhtml">
    <path class="typst-shape" fill="#ffffff" fill-rule="nonzero" d="M 0 0v 297.6378 h 396.8504 v -297.6378 Z "/>
    <g>
        <g class="typst-text" transform="matrix(1 0 0 -1 171.2364968503937 153.10696110236222)">
            <use xlink:href="#g43A1912FA0D587AAD218B944686321AC" x="0" y="0" fill="#004682" fill-rule="nonzero"/>
            <use xlink:href="#g43D46468F0C089E9554D9ED5B39EFD23" x="14.880096" y="0" fill="#004682" fill-rule="nonzero"/>
            <use xlink:href="#g52D8E8E1DF64ED216C25EF032848F65C" x="23.560152" y="0" fill="#004682" fill-rule="nonzero"/>
            <use xlink:href="#g433558793A5491E0E9B26BC6DB85C17E" x="33.84612" y="0" fill="#004682" fill-rule="nonzero"/>
            <use xlink:href="#g11960F91CA1E84502BB760B2E4A1B0AB" x="44.437008" y="0" fill="#004682" fill-rule="nonzero"/>
        </g>
    </g>
    <defs id="glyph">
        <symbol id="g43A1912FA0D587AAD218B944686321AC" overflow="visible">
            <path d="M 0 0m 4.614456 10.611217 c 0 1.6872234 0.30491972 1.7888632 1.8701758 1.8498478 c 0.12196827 0.121967316 0.12196827 0.56918335 0 0.6911516 c -0.9960718 -0.020327568 -2.33772 -0.04065609 -3.313464 -0.04065609 c -0.9147601 0 -1.951488 0.020328522 -2.967888 0.04065609 c -0.121968 -0.12196827 -0.121968 -0.5691843 0 -0.6911516 c 1.2196801 -0.06098461 1.565256 -0.16262436 1.565256 -1.8498478 v -5.8138084 c 0 -1.9718161 0.6301681 -3.394776 1.768536 -4.146912 c 1.2806642 -0.833448 3.15084 -0.853776 4.1062565 -0.853776 c 4.1672397 0 5.48856 2.581656 5.48856 6.20004 v 4.6144567 c 0 1.6872234 0.36590385 1.7278795 1.5652561 1.8498478 c 0.121967316 0.121967316 0.121967316 0.56918335 0 0.6911516 c -0.7927923 -0.020327568 -1.6059122 -0.04065609 -2.1750965 -0.04065609 c -0.5895119 0 -1.6465683 0.020328522 -2.5816555 0.04065609 c -0.12196827 -0.12196827 -0.12196827 -0.5691843 0 -0.6911516 c 1.5449276 -0.12196827 1.8701754 -0.16262436 1.8701754 -1.8498478 v -4.9803605 c 0 -2.276736 -0.3049202 -4.98036 -3.7403517 -4.98036 c -0.97574425 0 -1.8091922 0.426888 -2.419032 1.0164 c -0.9960718 0.9554161 -1.0367279 2.4800162 -1.0367279 3.8013363 Z "/>
        </symbol>
        <symbol id="g43D46468F0C089E9554D9ED5B39EFD23" overflow="visible">
            <path d="M 0 0m 0.975744 2.967888 c 0.08131194 -0.99607205 0.18295205 -1.9514881 0.34557605 -2.723952 c 0.3862319 -0.121968 1.6872239 -0.447216 2.825592 -0.447216 c 1.5652561 0 3.5167441 0.853776 3.5167441 2.622312 c 0 0.69115186 -0.16262436 1.2400079 -0.63016796 1.748208 c -0.5691843 0.650496 -1.4229603 1.1586957 -2.3580484 1.5652561 c -0.8131199 0.3455758 -1.0977118 0.9960718 -1.0977118 1.5855837 c 0 0.46754408 0.3862319 0.853776 0.975744 0.853776 c 0.71148014 0 1.4026322 -0.650496 1.9108319 -1.8905039 c 0.36590385 -0.060984135 0.5895119 -0.04065609 0.7927923 0.101640224 c 0 0.7318077 -0.08131218 1.504272 -0.2642641 2.1547675 c -0.650496 0.28459263 -1.1586962 0.48787212 -2.2767363 0.48787212 c -1.077384 0 -2.0937839 -0.40655994 -2.7442799 -1.057056 c -0.46754408 -0.46754408 -0.6911521 -1.0367279 -0.6911521 -1.5855837 c 0 -0.6098404 0.24393606 -1.097712 0.6301681 -1.5246 c 0.6301681 -0.6911521 1.7482079 -1.4026322 2.358048 -1.6872241 c 0.81312037 -0.3659041 1.0367284 -1.097712 1.0367284 -1.585584 c 0 -0.650496 -0.650496 -0.99607205 -1.1993523 -0.99607205 c -0.9147599 0 -1.8905039 0.93508804 -2.3173919 2.419032 c -0.325248 0.060984135 -0.487872 0.04065609 -0.81312 -0.04065585 Z "/>
        </symbol>
        <symbol id="g52D8E8E1DF64ED216C25EF032848F65C" overflow="visible">
            <path d="M 0 0m 5.99676 0.996072 c 0.14229631 -0.833448 0.6911521 -1.199352 1.5855842 -1.199352 c 1.1180401 0 1.9108324 0.426888 2.6629677 1.138368 c -0.04065609 0.24393594 -0.121967316 0.40655994 -0.36590385 0.56918395 c -0.2642641 -0.20327997 -0.4675436 -0.2845919 -0.853776 -0.2845919 c -0.44721603 0 -0.5691843 0.36590397 -0.5691843 1.3619759 l 0.04065609 2.9272323 c 0 2.9272318 -1.8091917 3.5167437 -3.4760876 3.5167437 c -1.4839442 0 -3.7606802 -0.853776 -3.7606802 -2.195424 c 0 -0.5691838 0.24393594 -1.0163999 1.036728 -1.0163999 c 0.73180795 0 1.2603359 0.44721603 1.2603359 0.93508816 c 0 0.10163975 -0.020328045 0.22360802 -0.04065585 0.3455758 c -0.04065609 0.20327997 -0.08131218 0.40655994 -0.04065609 0.6098399 c 0.020328045 0.22360802 0.18295193 0.46754408 0.853776 0.46754408 c 0.853776 0 1.5652561 -0.36590385 1.5652561 -2.9475598 l -1.3619761 -0.426888 c -2.13444 -0.67082405 -3.638712 -1.2603362 -3.638712 -2.8662481 c 0 -1.402632 0.772464 -2.13444 2.541 -2.13444 c 0.5895119 0 1.7685361 0.650496 2.4393601 1.179024 Z m -0.10163975 3.4354322 v -2.6832962 c -0.50820017 -0.40656006 -1.0163999 -0.73180807 -1.3823042 -0.73180807 c -0.874104 0 -1.179024 0.589512 -1.179024 1.21968 c 0 0.752136 0.060984135 1.3823042 1.5042722 1.849848 Z "/>
        </symbol>
        <symbol id="g433558793A5491E0E9B26BC6DB85C17E" overflow="visible">
            <path d="M 0 0m 9.493176 8.0092325 c 0.56918335 0 0.89443207 0.24393559 0.89443207 0.9960718 c 0 0.38623142 -0.5285282 0.9757433 -1.300992 0.9757433 c -0.89443207 0 -2.0734563 -0.6708231 -2.6629686 -1.1993513 c -0.36590385 0.2032795 -0.79279184 0.24393559 -1.707552 0.24393559 c -0.8741038 0 -1.72788 -0.2032795 -2.3987038 -0.6504955 c -0.83344805 -0.5285282 -1.3823041 -1.3213205 -1.3823041 -2.3580484 c 0 -0.9960718 0.589512 -2.0734558 1.565256 -2.601984 c -0.63016796 -0.5488558 -1.605912 -1.6262399 -1.605912 -2.0328 c 0 -0.38623196 0.060984015 -0.63016796 0.26426405 -0.9350879 c 0.18295193 -0.284592 0.426888 -0.447216 0.83344793 -0.569184 c -0.874104 -0.528528 -1.768536 -1.687224 -1.768536 -2.0328 c 0 -0.752136 0.24393602 -1.62624 0.79279196 -2.0124722 c 0.7927921 -0.5488558 2.13444 -0.67082405 3.1101842 -0.67082405 c 2.825592 0 6.057744 1.4839442 6.057744 3.720024 c 0 0.426888 -0.20328045 1.300992 -1.0164003 1.849848 c -0.79279137 0.52852803 -3.841992 0.670824 -5.346264 0.670824 c -0.3659041 0 -0.9147601 0.04065597 -0.9147601 0.853776 c 0 0.325248 0.20327997 0.60984015 0.30491996 0.853776 c 0.426888 -0.20327997 0.853776 -0.22360802 1.4839439 -0.22360802 c 1.0367284 0 1.9921441 0.2642641 2.6832962 0.874104 c 0.5895119 0.528528 0.9960723 1.2400081 0.9960723 2.1547682 c 0 1.1383677 -0.5691843 1.8905039 -1.2603364 2.4596882 c 0.16262388 0.2032795 0.83344793 0.56918335 1.0367284 0.56918335 c 0.18295193 0 0.32524776 -0.121967316 0.38623142 -0.24393559 c 0.08131218 -0.2642641 0.44721603 -0.6911516 0.9554167 -0.6911516 Z m -5.9357767 -8.517432 c 1.5652559 0 4.5738 -0.060984015 4.5738 -1.1383681 c 0 -0.73180795 -0.32524776 -1.5652559 -0.9960718 -1.93116 c -0.63016796 -0.3659041 -1.6668959 -0.40655994 -2.4393601 -0.40655994 c -1.3416479 0 -2.2564077 0.99607205 -2.2564077 2.0328 c 0 0.691152 0 1.1586959 0.22360778 1.565256 c 0.20328021 -0.081312 0.46754408 -0.12196797 0.89443207 -0.12196797 Z m 2.3377202 6.362664 c 0 -1.951488 -0.5691843 -2.195424 -1.097712 -2.195424 c -1.2603362 0 -1.42296 1.504272 -1.42296 2.541 c 0 1.504272 0.3659041 2.0531282 1.1586959 2.0531282 c 0.9554162 0 1.3619761 -0.79279184 1.3619761 -2.398704 Z "/>
        </symbol>
        <symbol id="g11960F91CA1E84502BB760B2E4A1B0AB" overflow="visible">
            <path d="M 0 0m 8.761368 2.622312 c -0.83344793 -0.8537761 -1.93116 -1.077384 -2.7036238 -1.077384 c -1.5855842 0 -2.561328 0.9147599 -2.561328 2.9069037 c 0 0.14229631 0.020328045 0.22360802 0.020328045 0.32524824 h 4.87872 c 0.48787212 0 0.5895119 0.3455758 0.5895119 0.63016796 c 0 1.72788 -0.67082405 3.618384 -3.65904 3.618384 c -2.1344397 0 -4.5738 -1.8905039 -4.5738 -5.000688 c 0 -1.1790237 0.426888 -2.4190319 1.300992 -3.211824 c 0.77246404 -0.691152 1.7685361 -1.0164 3.2118242 -1.0164 c 1.4026318 0 2.7849355 0.71148 3.8013358 2.195424 c 0 0.264264 -0.10163975 0.6301681 -0.3049202 0.6301681 Z m -5.163312 2.9678879 c 0.020328045 0.71148014 0.12196803 1.4839439 0.40656018 1.8905044 c 0.32524776 0.48787165 0.874104 0.6911516 1.0977116 0.6911516 c 0.54885626 0 1.300992 -0.52852774 1.300992 -2.154768 c 0 -0.12196779 0 -0.3862319 -0.040655613 -0.426888 Z "/>
        </symbol>
    </defs>
</svg>

<svg class="typst-doc" viewBox="0 0 396.8503937007874 297.6377952755906" width="396.8503937007874pt" height="297.6377952755906pt" xmlns="http://www.w3.org/2000/svg" xmlns:xlink="http://www.w3.org/1999/xlink" xmlns:h5="http://www.w3.org/1999/xhtml">
    <path class="typst-shape" fill="#ffffff" fill-rule="nonzero" d="M 0 0 L 0 297.6378 L 396.8504 297.6378 L 396.8504 0 Z "/>
    <g>
        <g transform="translate(171.2364968503937 153.10696110236222)">
            <g class="typst-text" transform="scale(1, -1)">
                <use xlink:href="#g619362DC2BBAF8E447423541F4C50327" x="0" fill="#004682" fill-rule="nonzero"/>
                <use xlink:href="#gBAD09851237B564BEA35BD43C3151474" x="14.880096" fill="#004682" fill-rule="nonzero"/>
                <use xlink:href="#gC29D5B8831393A49A5AA934599251117" x="23.560152" fill="#004682" fill-rule="nonzero"/>
                <use xlink:href="#gAE5F508B5C377F756B9F6BA35F3D56C8" x="33.84612" fill="#004682" fill-rule="nonzero"/>
                <use xlink:href="#g957E5F8AD780C1C556A08CD74E197627" x="44.437008" fill="#004682" fill-rule="nonzero"/>
            </g>
        </g>
    </g>
    <defs id="glyph">
        <symbol id="g619362DC2BBAF8E447423541F4C50327" overflow="visible">
            <path d="M 4.614456 10.611217 C 4.614456 12.29844 4.919376 12.40008 6.484632 12.461064 C 6.6066003 12.583032 6.6066003 13.030248 6.484632 13.152216 C 5.48856 13.131888 4.146912 13.11156 3.171168 13.11156 C 2.256408 13.11156 1.2196801 13.131888 0.20328 13.152216 C 0.081312 13.030248 0.081312 12.583032 0.20328 12.461064 C 1.42296 12.40008 1.768536 12.29844 1.768536 10.611217 L 1.768536 4.797408 C 1.768536 2.825592 2.398704 1.402632 3.537072 0.650496 C 4.817736 -0.182952 6.687912 -0.20328 7.643328 -0.20328 C 11.810568 -0.20328 13.131888 2.378376 13.131888 5.99676 L 13.131888 10.611217 C 13.131888 12.29844 13.497792 12.339096 14.6971445 12.461064 C 14.819112 12.583032 14.819112 13.030248 14.6971445 13.152216 C 13.904352 13.131888 13.091232 13.11156 12.522048 13.11156 C 11.932536 13.11156 10.87548 13.131888 9.9403925 13.152216 C 9.818424 13.030248 9.818424 12.583032 9.9403925 12.461064 C 11.48532 12.339096 11.810568 12.29844 11.810568 10.611217 L 11.810568 5.630856 C 11.810568 3.35412 11.505648 0.650496 8.070216 0.650496 C 7.094472 0.650496 6.261024 1.077384 5.651184 1.666896 C 4.6551123 2.622312 4.614456 4.146912 4.614456 5.468232 Z "/>
        </symbol>
        <symbol id="gBAD09851237B564BEA35BD43C3151474" overflow="visible">
            <path d="M 0.975744 2.967888 C 1.057056 1.9718161 1.158696 1.0164 1.32132 0.243936 C 1.707552 0.121968 3.008544 -0.20328 4.146912 -0.20328 C 5.712168 -0.20328 7.663656 0.650496 7.663656 2.419032 C 7.663656 3.110184 7.501032 3.65904 7.0334883 4.16724 C 6.464304 4.817736 5.610528 5.325936 4.67544 5.7324963 C 3.86232 6.078072 3.577728 6.728568 3.577728 7.31808 C 3.577728 7.785624 3.96396 8.171856 4.553472 8.171856 C 5.264952 8.171856 5.9561043 7.52136 6.464304 6.281352 C 6.830208 6.220368 7.053816 6.240696 7.2570963 6.3829923 C 7.2570963 7.1148 7.175784 7.8872643 6.992832 8.53776 C 6.342336 8.822352 5.834136 9.025632 4.716096 9.025632 C 3.638712 9.025632 2.622312 8.619072 1.9718161 7.968576 C 1.504272 7.501032 1.280664 6.931848 1.280664 6.3829923 C 1.280664 5.773152 1.5246 5.28528 1.910832 4.8583922 C 2.5410001 4.16724 3.65904 3.45576 4.26888 3.171168 C 5.0820003 2.805264 5.3056083 2.073456 5.3056083 1.585584 C 5.3056083 0.93508804 4.6551123 0.589512 4.106256 0.589512 C 3.1914961 0.589512 2.2157521 1.5246 1.788864 3.008544 C 1.463616 3.069528 1.300992 3.0492 0.975744 2.967888 Z "/>
        </symbol>
        <symbol id="gC29D5B8831393A49A5AA934599251117" overflow="visible">
            <path d="M 5.99676 0.996072 C 6.139056 0.162624 6.687912 -0.20328 7.582344 -0.20328 C 8.700384 -0.20328 9.493176 0.223608 10.245312 0.93508804 C 10.204656 1.179024 10.123344 1.341648 9.879408 1.504272 C 9.615144 1.300992 9.411864 1.2196801 9.025632 1.2196801 C 8.578416 1.2196801 8.456448 1.585584 8.456448 2.581656 L 8.497104 5.5088882 C 8.497104 8.43612 6.687912 9.025632 5.021016 9.025632 C 3.537072 9.025632 1.260336 8.171856 1.260336 6.830208 C 1.260336 6.261024 1.504272 5.813808 2.297064 5.813808 C 3.028872 5.813808 3.5574 6.261024 3.5574 6.748896 C 3.5574 6.850536 3.537072 6.972504 3.5167441 7.094472 C 3.476088 7.297752 3.435432 7.501032 3.476088 7.704312 C 3.496416 7.92792 3.65904 8.171856 4.329864 8.171856 C 5.18364 8.171856 5.89512 7.805952 5.89512 5.224296 L 4.533144 4.797408 C 2.398704 4.126584 0.894432 3.537072 0.894432 1.93116 C 0.894432 0.528528 1.666896 -0.20328 3.435432 -0.20328 C 4.024944 -0.20328 5.203968 0.447216 5.874792 0.975744 Z M 5.89512 4.4315042 L 5.89512 1.748208 C 5.38692 1.341648 4.8787203 1.0164 4.512816 1.0164 C 3.638712 1.0164 3.333792 1.605912 3.333792 2.23608 C 3.333792 2.988216 3.394776 3.6183841 4.838064 4.085928 Z "/>
        </symbol>
        <symbol id="gAE5F508B5C377F756B9F6BA35F3D56C8" overflow="visible">
            <path d="M 9.493176 8.0092325 C 10.06236 8.0092325 10.387609 8.253168 10.387609 9.005304 C 10.387609 9.391536 9.85908 9.981048 9.0866165 9.981048 C 8.192184 9.981048 7.01316 9.310225 6.423648 8.781696 C 6.057744 8.984976 5.630856 9.025632 4.716096 9.025632 C 3.8419921 9.025632 2.988216 8.822352 2.317392 8.375136 C 1.483944 7.846608 0.93508804 7.053816 0.93508804 6.017088 C 0.93508804 5.021016 1.5246 3.9436321 2.500344 3.415104 C 1.8701761 2.8662481 0.894432 1.788864 0.894432 1.382304 C 0.894432 0.996072 0.955416 0.752136 1.158696 0.447216 C 1.341648 0.162624 1.585584 0 1.992144 -0.121968 C 1.11804 -0.650496 0.223608 -1.8091921 0.223608 -2.154768 C 0.223608 -2.906904 0.46754402 -3.781008 1.0164 -4.16724 C 1.8091921 -4.716096 3.15084 -4.838064 4.126584 -4.838064 C 6.952176 -4.838064 10.184328 -3.35412 10.184328 -1.11804 C 10.184328 -0.691152 9.981048 0.182952 9.167928 0.731808 C 8.375136 1.260336 5.325936 1.402632 3.821664 1.402632 C 3.45576 1.402632 2.906904 1.443288 2.906904 2.256408 C 2.906904 2.581656 3.110184 2.8662481 3.211824 3.110184 C 3.638712 2.906904 4.0656 2.886576 4.695768 2.886576 C 5.7324963 2.886576 6.687912 3.15084 7.379064 3.76068 C 7.968576 4.289208 8.375136 5.000688 8.375136 5.915448 C 8.375136 7.053816 7.805952 7.805952 7.1148 8.375136 C 7.277424 8.578416 7.948248 8.94432 8.151528 8.94432 C 8.33448 8.94432 8.476776 8.822352 8.53776 8.700384 C 8.619072 8.43612 8.984976 8.0092325 9.493176 8.0092325 Z M 3.5574 -0.5082 C 5.122656 -0.5082 8.1312 -0.569184 8.1312 -1.6465681 C 8.1312 -2.378376 7.805952 -3.211824 7.135128 -3.577728 C 6.50496 -3.9436321 5.468232 -3.984288 4.695768 -3.984288 C 3.35412 -3.984288 2.4393601 -2.988216 2.4393601 -1.951488 C 2.4393601 -1.260336 2.4393601 -0.792792 2.662968 -0.38623202 C 2.8662481 -0.46754402 3.130512 -0.5082 3.5574 -0.5082 Z M 5.89512 5.854464 C 5.89512 3.902976 5.325936 3.65904 4.797408 3.65904 C 3.537072 3.65904 3.374448 5.163312 3.374448 6.20004 C 3.374448 7.704312 3.7403522 8.253168 4.533144 8.253168 C 5.48856 8.253168 5.89512 7.4603763 5.89512 5.854464 Z "/>
        </symbol>
        <symbol id="g957E5F8AD780C1C556A08CD74E197627" overflow="visible">
            <path d="M 8.761368 2.622312 C 7.92792 1.768536 6.830208 1.5449281 6.057744 1.5449281 C 4.47216 1.5449281 3.496416 2.459688 3.496416 4.451832 C 3.496416 4.594128 3.5167441 4.67544 3.5167441 4.77708 L 8.395464 4.77708 C 8.883336 4.77708 8.984976 5.122656 8.984976 5.407248 C 8.984976 7.135128 8.314152 9.025632 5.325936 9.025632 C 3.1914961 9.025632 0.752136 7.135128 0.752136 4.024944 C 0.752136 2.84592 1.179024 1.605912 2.053128 0.81312 C 2.825592 0.121968 3.821664 -0.20328 5.264952 -0.20328 C 6.667584 -0.20328 8.049888 0.5082 9.066288 1.992144 C 9.066288 2.256408 8.964648 2.622312 8.761368 2.622312 Z M 3.598056 5.5902 C 3.6183841 6.30168 3.720024 7.074144 4.0046163 7.4807043 C 4.329864 7.968576 4.8787203 8.171856 5.102328 8.171856 C 5.651184 8.171856 6.40332 7.643328 6.40332 6.017088 C 6.40332 5.89512 6.40332 5.630856 6.362664 5.5902 Z "/>
        </symbol>
    </defs>
</svg>
